src/activities/watercycle/resource/wastewater.svg

<?xml version="1.0" encoding="UTF-8" standalone="no"?>
<!-- Created with Inkscape (http://www.inkscape.org/) -->

<svg
   xmlns:dc="http://purl.org/dc/elements/1.1/"
   xmlns:cc="http://creativecommons.org/ns#"
   xmlns:rdf="http://www.w3.org/1999/02/22-rdf-syntax-ns#"
   xmlns:svg="http://www.w3.org/2000/svg"
   xmlns="http://www.w3.org/2000/svg"
   xmlns:sodipodi="http://sodipodi.sourceforge.net/DTD/sodipodi-0.dtd"
   xmlns:inkscape="http://www.inkscape.org/namespaces/inkscape"
   width="800"
   height="520"
   id="svg2"
   sodipodi:version="0.32"
   inkscape:version="0.91 r13725"
   sodipodi:docname="wastewater.svg"
   inkscape:output_extension="org.inkscape.output.svgz.inkscape"
   version="1.0"
   style="display:inline;enable-background:new"
   inkscape:export-filename="/home/tef/Desktop/watercycle_preview_04.png"
   inkscape:export-xdpi="90"
   inkscape:export-ydpi="90">
  <defs
     id="defs4" />
  <sodipodi:namedview
     id="base"
     pagecolor="#ffffff"
     bordercolor="#666666"
     borderopacity="1.0"
     inkscape:pageopacity="0.0"
     inkscape:pageshadow="2"
     inkscape:zoom="0.54565796"
     inkscape:cx="890.7808"
     inkscape:cy="216.99256"
     inkscape:document-units="px"
     inkscape:current-layer="BACKGROUND"
     showgrid="false"
     inkscape:window-width="1366"
     inkscape:window-height="700"
     inkscape:window-x="-2"
     inkscape:window-y="-3"
     showguides="true"
     inkscape:guide-bbox="true"
     borderlayer="true"
     inkscape:showpageshadow="false"
     inkscape:window-maximized="1" />
  <metadata
     id="metadata7">
    <rdf:RDF>
      <cc:Work
         rdf:about="">
        <dc:format>image/svg+xml</dc:format>
        <dc:type
           rdf:resource="http://purl.org/dc/dcmitype/StillImage" />
        <dc:title />
        <dc:date>28/10/2008</dc:date>
        <dc:creator>
          <cc:Agent>
            <dc:title>Cabaraux Stéphane</dc:title>
          </cc:Agent>
        </dc:creator>
        <dc:rights>
          <cc:Agent>
            <dc:title>Cabaraux Stéphane</dc:title>
          </cc:Agent>
        </dc:rights>
        <dc:publisher>
          <cc:Agent>
            <dc:title>Gnurps</dc:title>
          </cc:Agent>
        </dc:publisher>
        <dc:identifier />
        <dc:relation />
        <dc:subject>
          <rdf:Bag>
            <rdf:li>gcompris</rdf:li>
            <rdf:li>watercycle</rdf:li>
          </rdf:Bag>
        </dc:subject>
        <cc:license
           rdf:resource="http://artlibre.org/licence.php/lalgb.html" />
      </cc:Work>
      <cc:License
         rdf:about="http://artlibre.org/licence.php/lalgb.html">
        <cc:permits
           rdf:resource="http://creativecommons.org/ns#Reproduction" />
        <cc:permits
           rdf:resource="http://creativecommons.org/ns#Distribution" />
        <cc:permits
           rdf:resource="http://creativecommons.org/ns#DerivativeWorks" />
        <cc:requires
           rdf:resource="http://creativecommons.org/ns#ShareAlike" />
        <cc:requires
           rdf:resource="http://creativecommons.org/ns#Notice" />
        <cc:requires
           rdf:resource="http://creativecommons.org/ns#Attribution" />
      </cc:License>
    </rdf:RDF>
  </metadata>
  <g
     inkscape:groupmode="layer"
     id="BACKGROUND"
     style="opacity:1;display:inline"
     inkscape:label="BACKGROUND">
    <g
       transform="translate(-1798.1411,-110.22771)"
       id="g6965" />
  </g>
  <g
     inkscape:groupmode="layer"
     id="layer5"
     inkscape:label="MISC"
     style="display:inline">
    <path
       style="fill:#a05a2c;fill-opacity:1;stroke:#000000;stroke-width:1;stroke-linecap:round;stroke-linejoin:round;stroke-miterlimit:4;stroke-dashoffset:0;stroke-opacity:1;display:inline;enable-background:new"
       d="M 492.35938,323.89062 C 488.73348,325.96199 485.9811,328.00756 491.36501,329.81289 C 505.86441,339.18838 520.88727,347.98091 534.83049,358.06937 C 538.19492,362.58677 531.59263,365.17626 529.05553,367.95255 C 524.10994,372.16628 519.16434,376.38002 514.21875,380.59375 C 509.97857,381.70915 507.22786,377.05042 503.7433,375.25279 C 483.68304,360.57478 463.62277,345.89676 443.5625,331.21875 C 437.18971,334.6191 441.08917,336.2056 445.55517,339.34026 C 466.94999,354.98601 488.5424,370.94831 509.81296,386.39816 C 515.61763,389.70557 519.28941,382.81372 523.50029,380.02368 C 530.17728,374.2762 536.85426,368.52873 543.53125,362.78125 C 553.48081,361.62647 563.69068,362.54273 573.74787,362.25 C 579.44713,362.42191 585.20584,361.88111 590.86213,362.56809 C 594.68278,365.1684 592.36315,370.54622 593,374.48786 C 593,378.70024 593,382.91262 593,387.125 C 597.42791,388.21487 599.6497,386.99605 598.5,382.24902 C 598.68294,376.30371 598.13091,370.2569 598.78125,364.37614 C 601.79835,360.67156 607.38389,362.83404 611.64411,362.25 C 644.56482,362.25 677.48554,362.25 710.40625,362.25 C 717.25399,361.32295 715.19382,353.74433 715.5,348.9375 C 711.15349,347.24686 708.84144,348.02131 710,353.00098 C 709.44989,358.56481 702.42414,356.26507 698.56455,356.75 C 647.55627,356.70699 596.46374,356.83597 545.50813,356.68555 C 537.53577,355.03097 531.57309,348.87968 524.61753,344.96822 C 513.86481,337.94235 503.11209,330.91649 492.35938,323.89062 z"
       id="DIRTYWATER" />
  </g>
  <g
     inkscape:groupmode="layer"
     id="layer4"
     inkscape:label="Cliquable"
     style="display:inline" />
  <g
     inkscape:groupmode="layer"
     id="FOREGROUND"
     inkscape:label="FOREGROUND"
     style="display:inline">
    <g
       style="display:inline;enable-background:new"
       id="g17478"
       transform="matrix(0.9099873,0,0,0.9099873,-85.990819,25.130066)" />
    <g
       style="fill:#d38d5f;fill-opacity:1;display:inline;enable-background:new"
       id="g15790"
       transform="matrix(0.3831471,0,0,0.2692464,341.1036,397.78251)">
      <g
         id="g15802"
         transform="matrix(0.7886114,0,0,0.7886114,81.005046,47.197041)" />
      <g
         transform="matrix(-0.7886114,0,0,0.7886114,777.18677,47.197041)"
         id="g15874"
         inkscape:transform-center-x="-10.783377" />
    </g>
    <g
       transform="translate(840,-520)"
       id="g7437"
       style="display:inline;enable-background:new" />
  </g>
  <g
     inkscape:groupmode="layer"
     id="layer1"
     inkscape:label="FOREGROUND2"
     style="display:inline" />
</svg>

<!--Created with Inkscape (http://www.inkscape.org/)--><svg xmlns:dc="http://purl.org/dc/elements/1.1/" xmlns:cc="http://creativecommons.org/ns#" xmlns:rdf="http://www.w3.org/1999/02/22-rdf-syntax-ns#" xmlns="http://www.w3.org/2000/svg" xmlns:sodipodi="http://sodipodi.sourceforge.net/DTD/sodipodi-0.dtd" xmlns:inkscape="http://www.inkscape.org/namespaces/inkscape" width="800" height="520" sodipodi:version="0.32" inkscape:version="0.91 r13725" sodipodi:docname="wastewater.svg" inkscape:output_extension="org.inkscape.output.svgz.inkscape" version="1.0" style="display:inline;enable-background:new" inkscape:export-filename="/home/tef/Desktop/watercycle_preview_04.png" inkscape:export-xdpi="90" inkscape:export-ydpi="90"><sodipodi:namedview pagecolor="#ffffff" bordercolor="#666666" borderopacity="1.0" inkscape:pageopacity="0.0" inkscape:pageshadow="2" inkscape:zoom="0.54565796" inkscape:cx="890.7808" inkscape:cy="216.99256" inkscape:document-units="px" inkscape:current-layer="BACKGROUND" showgrid="false" inkscape:window-width="1366" inkscape:window-height="700" inkscape:window-x="-2" inkscape:window-y="-3" showguides="true" inkscape:guide-bbox="true" borderlayer="true" inkscape:showpageshadow="false" inkscape:window-maximized="1"/><metadata><rdf:RDF><cc:Work><dc:format>image/svg+xml</dc:format><dc:type rdf:resource="http://purl.org/dc/dcmitype/StillImage"/><dc:title/><dc:date>28/10/2008</dc:date><dc:creator><cc:Agent><dc:title>Cabaraux Stéphane</dc:title></cc:Agent></dc:creator><dc:rights><cc:Agent><dc:title>Cabaraux Stéphane</dc:title></cc:Agent></dc:rights><dc:publisher><cc:Agent><dc:title>Gnurps</dc:title></cc:Agent></dc:publisher><dc:identifier/><dc:relation/><dc:subject><rdf:Bag><rdf:li>gcompris</rdf:li><rdf:li>watercycle</rdf:li></rdf:Bag></dc:subject><cc:license rdf:resource="http://artlibre.org/licence.php/lalgb.html"/></cc:Work><cc:License rdf:about="http://artlibre.org/licence.php/lalgb.html"><cc:permits rdf:resource="http://creativecommons.org/ns#Reproduction"/><cc:permits rdf:resource="http://creativecommons.org/ns#Distribution"/><cc:permits rdf:resource="http://creativecommons.org/ns#DerivativeWorks"/><cc:requires rdf:resource="http://creativecommons.org/ns#ShareAlike"/><cc:requires rdf:resource="http://creativecommons.org/ns#Notice"/><cc:requires rdf:resource="http://creativecommons.org/ns#Attribution"/></cc:License></rdf:RDF></metadata><g style="display:inline"><path style="fill:#a05a2c;fill-opacity:1;stroke:#000;stroke-width:1;stroke-linecap:round;stroke-linejoin:round;stroke-miterlimit:4;stroke-dashoffset:0;stroke-opacity:1;display:inline;enable-background:new" d="M492.36 323.89c-3.627 2.072-6.379 4.118-.995 5.923 14.5 9.375 29.522 18.168 43.465 28.256 3.365 4.518-3.237 7.107-5.774 9.884l-14.837 12.64c-4.24 1.116-6.991-3.543-10.476-5.34l-60.18-44.034c-6.373 3.4-2.474 4.987 1.992 8.121 21.395 15.646 42.987 31.608 64.258 47.058 5.805 3.308 9.476-3.584 13.687-6.374l20.031-17.243c9.95-1.155 20.16-.238 30.217-.531 5.7.172 11.458-.369 17.114.318 3.82 2.6 1.501 7.978 2.138 11.92v12.637c4.428 1.09 6.65-.129 5.5-4.876.183-5.945-.37-11.992.281-17.873 3.017-3.704 8.603-1.542 12.863-2.126h98.762c6.848-.927 4.788-8.506 5.094-13.313-4.347-1.69-6.659-.916-5.5 4.064-.55 5.564-7.576 3.264-11.435 3.749-51.009-.043-102.101.086-153.057-.064-7.972-1.655-13.935-7.806-20.89-11.718l-32.259-21.077z" inkscape:groupmode="layer" inkscape:label="MISC"/></g></svg>
